X: 1
T: Gatehouse Maid, The
M: 4/4
L: 1/8
R: reel
K: Gmaj
|A/2A/2ABd edBA|GG/2G/2G AGEDB|A/2A/2ABd  edBd|e/2f/2gdB ^B/2=B/2ABG|
|A/2A/2ABd edBA|GG/2G/2G AGEDB|A/2A/2ABd  edBd|e/2f/2gdB ^B/2=B/2A A2|
|a/2a/2aea agef|g/2f/2gdg egdg|a/2a/2aea b/2a/2gab| gedB BAAz|
|~a2 ab agef|fgg/2g/2a gdeg|dega bgab|gedB BAB/4A/2z||
